X:5
T:Kate and Julie's First Reel
R:reel
C:Jerry Holland
O:20th Century Cape Breton
S:Tune of the Month. June,1998.
A:<http://www.jerryholland.com>
N:Contacts ...
N:..... Jerry Holland <jerry@cranfordpub.com>
N:Tune books, related recordings
N:..... Cranford Publications <http://www.cranfordpub.com>
D:Currently unrecorded.
H:Copyrights - www.fiddlesticksmusic.com (SOCAN).
Z:Paul Stewart Cranford <psc@cranfordpub.com>
Q:333
L:1/8
M:C|
K:F
c|f2 af dcBA|d2cB AFFA|GCEC EFGA|B2 cB AGGc|!
f2 af dcBA|d2cB AFFA|GCEC EFGA|B2 cB AFF:|!
=B|c2Ac fcfg|afcA dBcA|{A}d2BG DGGA|B2 cB AGG=B|!
c2Ac fcfg|afcA dBcA|{A}d2BG DGGA|B2 cB AFF:|!
